packages/assets/static/images/icons/tree-evergreen.svg

<svg width="24" height="24" viewBox="0 0 24 24" xmlns="http://www.w3.org/2000/svg">
<path d="M21.8878 17.309L18.0506 12.3749H19.5C19.7101 12.3749 19.9161 12.3161 20.0945 12.2051C20.2729 12.094 20.4166 11.9353 20.5094 11.7467C20.6022 11.5582 20.6404 11.3475 20.6196 11.1384C20.5987 10.9293 20.5197 10.7302 20.3916 10.5637L12.8916 0.813654C12.7864 0.677459 12.6515 0.567184 12.4971 0.491308C12.3427 0.415432 12.173 0.375977 12.0009 0.375977C11.8289 0.375977 11.6591 0.415432 11.5047 0.491308C11.3503 0.567184 11.2154 0.677459 11.1103 0.813654L3.6103 10.5637C3.48222 10.73 3.40325 10.929 3.38234 11.1379C3.36144 11.3468 3.39942 11.5574 3.49199 11.7459C3.58457 11.9344 3.72804 12.0932 3.90618 12.2043C4.08432 12.3155 4.29001 12.3746 4.49999 12.3749H5.94936L2.11218 17.309C1.98282 17.4752 1.90272 17.6744 1.881 17.8839C1.85928 18.0934 1.89681 18.3048 1.98932 18.494C2.08184 18.6833 2.22561 18.8427 2.40429 18.9542C2.58296 19.0658 2.78936 19.1249 2.99999 19.1249H10.875V22.4999C10.875 22.7983 10.9935 23.0844 11.2045 23.2954C11.4155 23.5064 11.7016 23.6249 12 23.6249C12.2984 23.6249 12.5845 23.5064 12.7955 23.2954C13.0065 23.0844 13.125 22.7983 13.125 22.4999V19.1249H21C21.2106 19.1249 21.417 19.0658 21.5957 18.9542C21.7744 18.8427 21.9181 18.6833 22.0107 18.494C22.1032 18.3048 22.1407 18.0934 22.119 17.8839C22.0973 17.6744 22.0172 17.4752 21.8878 17.309ZM5.30061 16.8749L9.1378 11.9408C9.26716 11.7746 9.34726 11.5754 9.36898 11.3659C9.3907 11.1564 9.35317 10.945 9.26066 10.7558C9.16814 10.5666 9.02437 10.4071 8.84569 10.2956C8.66702 10.184 8.46062 10.1249 8.24999 10.1249H6.78468L12 3.3449L17.2153 10.1249H15.75C15.5394 10.1249 15.333 10.184 15.1543 10.2956C14.9756 10.4071 14.8318 10.5666 14.7393 10.7558C14.6468 10.945 14.6093 11.1564 14.631 11.3659C14.6527 11.5754 14.7328 11.7746 14.8622 11.9408L18.6994 16.8749H5.30061Z"/>
</svg>

<svg viewBox="0 0 24 24" xmlns="http://www.w3.org/2000/svg" aria-hidden="true" fill="currentColor" height="24px" width="24px"><path d="m21.888 17.309-3.837-4.934H19.5a1.125 1.125 0 0 0 .892-1.811l-7.5-9.75a1.126 1.126 0 0 0-1.782 0l-7.5 9.75a1.125 1.125 0 0 0 .89 1.81h1.45L2.111 17.31A1.125 1.125 0 0 0 3 19.125h7.875V22.5a1.125 1.125 0 1 0 2.25 0v-3.375H21a1.125 1.125 0 0 0 .888-1.816M5.3 16.875l3.837-4.934a1.125 1.125 0 0 0-.888-1.816H6.785L12 3.345l5.215 6.78H15.75a1.125 1.125 0 0 0-.888 1.816l3.837 4.934z"/></svg>
